!!!COM:	Bach, Johann Sebastian
!!!CDT:	1685/02/21/-1750/07/28/
!!!OTL@@DE:	Nun freut euch, Gottes Kinder all
!!!SCT:	BWV 387
!!!PC#:	185
!!!AGN:	chorale
**kern	**kern	**kern	**kern
*ICvox	*ICvox	*ICvox	*ICvox
*Ibass	*Itenor	*Ialto	*Isoprn
*I"Bass	*I"Tenor	*I"Alto	*I"Soprano
*clefF4	*clefGv2	*clefG2	*clefG2
*k[]	*k[]	*k[]	*k[]
*d:dor	*d:dor	*d:dor	*d:dor
*M4/4	*M4/4	*M4/4	*M4/4
*met(c)	*met(c)	*met(c)	*met(c)
*MM100	*MM100	*MM100	*MM100
8DL	4F	4A	4d
8EJ	.	.	.
=1	=1	=1	=1
[4F	4F	8AL	4d
.	.	8BJ	.
8FL]	4G	4c	4c
8EJ	.	.	.
4D	8AL	4d	4f
.	8FJ	.	.
8CL	[4c	4e	4g
8BBJ	.	.	.
=2	=2	=2	=2
4AA	8cL]	4e	4.a
.	16BL	.	.
.	16AJJ	.	.
4E	8BL	4e	.
.	8dJ	.	8g#
4AA;	4c;	4e;	4a;
8GL	4d	4g	4b
8FJ	.	.	.
=3	=3	=3	=3
8EL	4e	4g	4cc
8C	.	.	.
8D	8fL	4g	4b
8FJ	8dJ	.	.
8EL	4c	[4g	4cc
8C	.	.	.
8F	8cL	8gL]	4a
8DJ	16dL	16fL	.
.	16cJJ	16eJJ	.
=4	=4	=4	=4
8GL	8BL	4d	8b
8F	8A	.	4dd
8E	8G	4e	.
8AJ	8AJ	.	8cc#
4D;	4A;	4f#;	4dd;
4BB	4d	8gL	4dd
.	.	8fJ	.
=5	=5	=5	=5
8CL	[4G	4e	4ccnX
8EJ	.	.	.
4F	8GL]	4c	4a
.	8FJ	.	.
8AAL	4F	4c	4f
8FF	.	.	.
8BB-	4F	[4B-	4d
8AAJ	.	.	.
=6	=6	=6	=6
4GG	4G	8B-L]	4e
.	.	8AJ	.
4GG#	8FL	4BnX	4d
.	8EJ	.	.
4AA;	4E;	4A;	4c#;
4AA	4A	4c#	4e
=7	=7	=7	=7
4BBnX	4.G	4d	8gL
.	.	.	8fJ
4C#	.	4A	4e
.	8G	.	.
8DL	4F	4A	4f
8C	.	.	.
8BB-	4F	[4B-	4d
8AAJ	.	.	.
=8	=8	=8	=8
4GG	8GL	8B-]	4.e
.	8B-J	4d	.
4AA	8.AL	.	.
.	.	8c#	8e
.	16GJk	.	.
4DD;	4F#;	4A;	4d;
==	==	==	==
*-	*-	*-	*-
!!!hum2abc: -Q ''
!!!title: @{PC#}. @{OTL@@DE}
!!!YOR1: 371 vierstimmige Choralges&auml;nge von Johann Sebastian Bach, 
!!!YOR2: 4th ed. by Alfred D&ouml;rffel (Leipzig: Breitkopf und H&auml;rtel, 
!!!YOR2: c.1875). 178 pp. Plate "V.A.10".  reprint: J.S. Bach, 371 Four-Part 
!!!YOR4: Chorales (New York: Associated Music Publishers, Inc., c.1940).
!!!SMS: B&H, 4th ed, Alfred D&ouml;rffel, c.1875, plate V.A.10
!!!EED:  Craig Stuart Sapp
!!!EEV:  2009/05/22
